X:1
T:Title
%%score ( 1 2 ) ( 3 4 )
L:1/8
Q:1/4=95
M:6/8
K:Bb
V:1 treble nm="Grand Piano, Soprano"
V:2 treble 
V:3 bass nm="Choir Pad, Blackwell, Hart Danks, 1902"
V:4 bass 
V:1
 z3 z .F2 | [DB] [EB]2 [EA] [EA]2 | [EG] [EG]2 [EF] [A,C]2 | [A,_D] [B,=D]2- [B,D]2- [B,D]/ z/ | %4
 D [DB]2 [DA] [DG]2 | [DF] [DF]2 [CE] [CE]2 | [EG] [=Ec]2 [EB] [EA]2 | [=EG] F2- F2- F/ z/ | %8
 FAG [EF]AG | [EF]FB [_DG] [=DF]2 | [DF] [CF]2 [FA] [=Ec]2 | [=Ec] [_Ec]2- [Ec]2- [Ec]/ z/ | %12
 F [Fd]2 [Fc] [FB]2 | [FA] [FA]2 [EG] [EG]2 | [EG] [DF]2 [DB] [EB]2 | [EA] [DB]2- [DB]3- | %16
 [DB]3 z3 |] %17
V:2
 [DF][DF][B,D] [CE]D-[Dc] | x6 | x6 | x6 | x6 | x6 | x6 | x6 | z E2 z E2 | z D2 z3 | x6 | x6 | x6 | %13
 x6 | x6 | x6 | x6 |] %17
V:3
 [B,,F,] [B,,F,]2 [B,,F,] [B,,F,]2 | [B,,F,] [C,F,]2 [C,F,] [C,F,]2 | %2
 [C,G,] [F,A,]2 [F,A,] [F,,F,]2 | [F,,F,] [B,,F,]2- [B,,F,]2- [B,,F,]/ z/ | %4
 D, [G,,G,]2 [A,,^F,] [B,,G,]2 | [=B,,G,] [C,G,]2 [C,G,] [C,G,]2 | [C,G,] [C,G,]2 [C,G,] [C,C]2 | %7
 [C,B,] [F,A,]2- [F,A,]2- [F,A,]/ z/ | z .C2 z .C2 | z .B,2 z3 | [=B,,_A,] [C,=A,]2 [C,C] [C,B,]2 | %11
 [C,B,] [F,A,]2- [F,A,]2- [F,A,]/ z/ | [F,A,] [B,,B,]2 [C,A,] [D,B,]2 | %13
 [D,B,] [E,B,]2 [E,B,] [E,B,]2 | [E,B,] [F,B,]2 [F,B,] [F,C]2 | [F,C] [B,,B,]2- [B,,B,]3- | %16
 [B,,B,]3 z3 |] %17
V:4
 x6 | x6 | x6 | x6 | x6 | x6 | x6 | x6 | [F,A,]F,-[F,B,] [F,A,]F,-[F,B,] | %9
 [F,A,]B,,-[B,,F,] [B,,=E,] [B,,F,]2 | x6 | x6 | x6 | x6 | x6 | x6 | x6 |] %17

